svgs/light/square-r.svg

<svg xmlns="http://www.w3.org/2000/svg" viewBox="0 0 448 512"><!-- Font Awesome Pro 6.0.0-alpha2 by @fontawesome - https://fontawesome.com License - https://fontawesome.com/license (Commercial License) --><path d="M384 32H64C28.654 32 0 60.654 0 96V416C0 451.346 28.654 480 64 480H384C419.346 480 448 451.346 448 416V96C448 60.654 419.346 32 384 32ZM416 416C416 433.645 401.645 448 384 448H64C46.355 448 32 433.645 32 416V96C32 78.355 46.355 64 64 64H384C401.645 64 416 78.355 416 96V416ZM336 208C336 163.891 300.125 128 256 128H144C135.156 128 128 135.156 128 144V368C128 376.844 135.156 384 144 384S160 376.844 160 368V288H230.348L307.844 378.406C311.031 382.109 315.5 384 320 384C323.688 384 327.406 382.734 330.406 380.141C337.125 374.391 337.906 364.297 332.156 357.594L271.186 286.465C308.057 279.34 336 246.91 336 208ZM256 256H160V160H256C282.469 160 304 181.531 304 208S282.469 256 256 256Z"/></svg>

<svg xmlns="http://www.w3.org/2000/svg" viewBox="0 0 448 512"><!--! Font Awesome Pro 6.0.0-alpha3 by @fontawesome - https://fontawesome.com License - https://fontawesome.com/license (Commercial License) --><path d="M384 32H64C28.65 32 0 60.65 0 96v320c0 35.35 28.65 64 64 64h320c35.35 0 64-28.65 64-64V96C448 60.65 419.3 32 384 32zM416 416c0 17.64-14.36 32-32 32H64c-17.64 0-32-14.36-32-32V96c0-17.64 14.36-32 32-32h320c17.64 0 32 14.36 32 32V416zM336 208C336 163.9 300.1 128 256 128H144C135.2 128 128 135.2 128 144v224C128 376.8 135.2 384 144 384S160 376.8 160 368V288h70.35l77.5 90.41C311 382.1 315.5 384 320 384c3.688 0 7.406-1.266 10.41-3.859c6.719-5.75 7.5-15.84 1.75-22.55l-60.97-71.13C308.1 279.3 336 246.9 336 208zM256 256H160V160h96c26.47 0 48 21.53 48 48S282.5 256 256 256z"/></svg>
